app/dist/common/images/bristow.svg

<svg height="18" viewBox="0 0 18 18" width="18" xmlns="http://www.w3.org/2000/svg"><path d="m0 0h18v18h-18z" fill="#f0f3fa"/><path d="m6.59 7.5.91.5v-3.29c0-.3-.17-.57-.42-.67l-1.08-.54.3.22c.13.11.29.28.29.46zm4.82 3-.91-.5v3.29c0 .3.17.57.42.67l1.08.54-.3-.22c-.13-.11-.29-.28-.29-.46z" fill="#e80000"/><path d="m10.5 6.59-.5.91h3.29c.3 0 .57-.17.67-.42l.54-1.08-.22.3c-.11.13-.28.29-.46.29zm-3 4.82.5-.91h-3.29c-.3 0-.57.17-.67.42l-.54 1.08.22-.3c.11-.13.28-.29.46-.29zm.5-3.01 1 .6v-3.29c0-.3-.18-.58-.45-.69l-1.1-.63.27.23c.14.1.28.28.28.46z" fill="#0065a4"/><path d="m9.6 8-.6 1h3.29c.3 0 .58-.18.69-.45l.63-1.1-.23.27c-.1.14-.28.28-.46.28z" fill="#e80000"/><path d="m10 9.6-1-.6v3.29c0 .3.18.58.45.69l1.1.63-.27-.23c-.14-.1-.28-.28-.28-.46z" fill="#0065a4"/><path d="m8.4 10 .6-1h-3.29c-.3 0-.58.18-.69.45l-.63 1.1.23-.27c.1-.14.28-.28.46-.28z" fill="#e80000"/></svg>

<!-- by TradingView --><svg width="18" height="18" viewBox="0 0 18 18" xmlns="http://www.w3.org/2000/svg"><path fill="#F0F3FA" d="M0 0h18v18H0z"/><path d="m6.59 7.5.91.5V4.71c0-.3-.17-.57-.42-.67L6 3.5l.3.22c.13.11.29.28.29.46V7.5ZM11.41 10.5l-.91-.5v3.29c0 .3.17.57.42.67l1.08.54-.3-.22c-.13-.11-.29-.28-.29-.46V10.5Z" fill="#E80000"/><path d="m10.5 6.59-.5.91h3.29c.3 0 .57-.17.67-.42L14.5 6l-.22.3c-.11.13-.28.29-.46.29H10.5ZM7.5 11.41l.5-.91H4.71c-.3 0-.57.17-.67.42L3.5 12l.22-.3c.11-.13.28-.29.46-.29H7.5ZM8 8.4 9 9V5.71c0-.3-.18-.58-.45-.69l-1.1-.63.27.23c.14.1.28.28.28.46V8.4Z" fill="#0065A4"/><path d="M9.6 8 9 9h3.29c.3 0 .58-.18.69-.45l.63-1.1-.23.27c-.1.14-.28.28-.46.28H9.6Z" fill="#E80000"/><path d="M10 9.6 9 9v3.29c0 .3.18.58.45.69l1.1.63-.27-.23c-.14-.1-.28-.28-.28-.46V9.6Z" fill="#0065A4"/><path d="M8.4 10 9 9H5.71c-.3 0-.58.18-.69.45l-.63 1.1.23-.27c.1-.14.28-.28.46-.28H8.4Z" fill="#E80000"/></svg>
